X:1
T:Title
%%score 1 2 3
L:1/8
M:3/2
K:C
V:1 treble nm="Part_1"
V:2 treble-8 nm="Part_2"
V:3 treble-8 nm="Part_3"
V:1
 A6 GA G2 F2 | F2 EF G2 F2 EF D2 | C8 F4- | F4 A4 F4 | E4 D4 F2 EF | G4 z4 G4 | G4 F2 D2 E2 F2 | %7
 D8 C2 B,2 | D12 | z12 | ^F4 D2 E4 F2 | G2 A2 _B2 A4 G2 | A4 z4 F2 E2 | E6 F2 G4 | G4 F2 E4 F2 | %15
 D2 E4 C4 B,2 | D4 C2 A,3 G, C2 | _B,2 C2 D2 CD C2 B,2 | C4 z4 E4 | F4 G2 F4 D2 | C12 | F2 A8 G2 | %22
 E4 A8 | A8 G4 | A12 | z4 z4 A4 | F4 C2 F4 G2 | E2 F2 G2 A2 G3 E | D4 z4 A4 | B6 c2 d4 | c4 B6 A2 | %31
 (3:2:5A8 G2 A2 G4 F2 | A4 _B2 A2 G2 F2 | E4 C4 D4 | C4 z4 F2 G2 | A2 _B8 G2 | A12 | z4 z4 F2 E2 | %38
 E4 A2 GA G2 F2 | F8 E4 | F8 A4 | A8 F4 | E8 C4 | E2 A4 G4 FG | A4 A2 A4 F2- | F2 E2 G4 z4 | %46
 G2 FG F2 D2 E3 F | D2 C2 E2 DE C2 B,C | D12 |] %49
V:2
[K:F] A12 | d4 B2 c2 d2 c2 | A8 B4 | c4 d2 _e4 d2 | c4 A4 c3 B | d8 B2 c2 | d4 A8 | A8 G2 F2 | %8
 A4 z4 d4 | d4 e2 d4 c2 | =B8 d4 | e4 f2 e4 d2 | e6 c4 d2 | B8 G4 | A4 B6 A2 | A8 G4 | %16
 A4 z4 A2 F2 | F2 G2 A2 GA F3 E | G8 c4 | A4 A2 A2 A2 G2 | A4 F4 A4 | c4 f6 e2 | c8 A4 | c4 d6 c2 | %24
 e4 z4 a4 | a6 g2 f2 e2 | f2 a4 f4 e2 | g6 e2 g4 | f8 z4 | d4 G8 | g4 e4 f4 | e4 d6 c2 | e8 z4 | %33
 a8 f4 | c2 F8 G2 | A4 c4 d2 e2 | f4 z4 d2 e2 | f4 g2 f4 d2 | c4 A4 c2 d2- | d4 c2 A2 B4 | %40
 c4 z4 f4 | f8 d4 | c8 A4 | F4 c4 d4 | e6 d2 e4 | c2 Bc d6 c2 | d3 c A8 | A2 GA B2 A4 G2 | A12 |] %49
V:3
[K:F] D12- | D12 | F12- | F12 | A12 | G12 | D8 F4- | F4 E8 | D12- | D8 d4 | d12 | c4 B8 | A12 | %13
 G8 E4 | D4 C4 D4 | F4 E8 | D12- | D12 | C12 | D12 | F12- | F12 | A8 d4- | d4 B8 | A12- | A12 | %26
 d12 | c12 | d12- | d12 | e8 d4 | c4 B8 | A12- | A12 | c12- | c12 | F12- | F12 | c8 A4- | A4 G8 | %40
 F12- | F12 | A8 c4- | c4 B8 | A12- | A4 G4 E4 | D8 F4- | F4 E8 | D12 |] %49

